X: 138024
T: The ROLLICKING IRISHMAN
Q: "Irish Jig."
R: Jig.
%R: jig
B: James Kerr "Merry Melodies" v.1 p.38 s.0 #24
Z: 2016 John Chambers <jc:trillian.mit.edu>
M: 6/8
L: 1/8
K: D
uA |\
dAF DFA | ded cBA | dcd efg | fed cBA |\
dAF DFA | ded cBA | dcd ede | fdd d2 :|
|: ue |\
fgf fga | efe ue2uc | dcd Bed | cAA uA2uA |\
BGB Bcd | ABA ABc | dcd ede | fdd d2 :|

%%sep 1 1 500
%%sep 1 1 500

